icons/creative-commons-zero-fill.svg

<svg width="24" height="24" fill="none" xmlns="http://www.w3.org/2000/svg"><g clip-path="url(#a)"><path d="M12 2c5.52 0 10 4.48 10 10s-4.48 10-10 10S2 17.52 2 12 6.48 2 12 2Zm0 4c-2.761 0-5 2.686-5 6s2.239 6 5 6 5-2.686 5-6-2.239-6-5-6Zm2.325 3.472c.422.69.675 1.57.675 2.528 0 2.21-1.343 4-3 4-.378 0-.74-.093-1.073-.263l-.164-.092 3.562-6.173ZM12 8c.378 0 .74.093 1.073.263l.164.092-3.562 6.173C9.253 13.838 9 12.958 9 12c0-2.21 1.343-4 3-4Z" /></g><defs><clipPath id="a"><path fill="#fff" d="M0 0h24v24H0z"/></clipPath></defs></svg>

<svg xmlns="http://www.w3.org/2000/svg" width="24" height="24" fill="none"><g clip-path="url(#a)"><g><path fill="#121212" d="M12 2C17.52 2 22 6.48 22 12C22 17.52 17.52 22 12 22C6.48 22 2 17.52 2 12C2 6.48 6.48 2 12 2ZM12 6C9.239 6 7 8.686 7 12C7 15.314 9.239 18 12 18C14.761 18 17 15.314 17 12C17 8.686 14.761 6 12 6ZM14.325 9.472C14.747 10.162 15 11.042 15 12C15 14.21 13.657 16 12 16C11.622 16 11.26 15.907 10.927 15.737L10.763 15.645L14.325 9.472ZM12 8C12.378 8 12.74 8.093 13.073 8.263L13.237 8.355L9.675 14.528C9.253 13.838 9 12.958 9 12C9 9.79 10.343 8 12 8Z"/></g></g><defs><clipPath id="a"><rect width="24" height="24" fill="white"/></clipPath></defs></svg>
